public/images/logo_arifolio.svg

<svg fill="none" height="40" viewBox="0 0 179 40" width="179" xmlns="http://www.w3.org/2000/svg"><g fill="#ddd"><path d="m26.6195 34.8602h5.0974l-10.577-29.5646h-5.6071l-10.57699 29.5646h5.05489zm-1.3959-4.538h-13.6283l6.741-19.1647z"/><path d="m58.907 34.8602h4.8425v-29.52212h-4.8425z"/><path d="m67.9833 34.8602h4.8425v-12.9133h9.7699v-3.9504h-9.7699v-8.70798h12.531v-3.95044h-17.3735z"/><path d="m116.266 20.0354c0-8.8354-6.669-15.07962-15.08-15.07962-8.3256 0-15.0795 6.24422-15.0795 15.07962 0 8.8779 6.7539 15.1221 15.0795 15.1221 8.411 0 15.08-6.2442 15.08-15.1221zm-25.1896 0c0-6.669 4.2478-10.83183 10.1096-10.83183 5.862 0 10.11 4.16283 10.11 10.83183s-4.248 10.9168-10.11 10.9168c-5.8618 0-10.1096-4.2478-10.1096-10.9168z"/><path d="m118.907 5.33808v29.52212h17.093v-3.908h-12.251v-25.61412z"/><path d="m135.658 34.8602h4.842v-14.7611-14.76102h-4.842z"/><path d="m173.279 20.0354c0-8.8354-6.669-15.07962-15.08-15.07962-8.325 0-15.079 6.24422-15.079 15.07962 0 8.8779 6.754 15.1221 15.079 15.1221 8.411 0 15.08-6.2442 15.08-15.1221zm-25.189 0c0-6.669 4.247-10.83183 10.109-10.83183s10.11 4.16283 10.11 10.83183-4.248 10.9168-10.11 10.9168-10.109-4.2478-10.109-10.9168z"/><path clip-rule="evenodd" d="m44.3866 19.1859c3.7805 0 5.4796-2.0815 5.4796-5.0124 0-2.9735-1.6991-4.88498-5.4796-4.88498h-5.3523v25.57168h-4.8424v-29.52212h10.1947c7.0088 0 10.4495 4.0354 10.4495 8.83542 0 3.4832-1.869 7.2212-6.8389 8.4531l7.3062 12.2336h-5.777l-5.7364-9.967v-5.7073z" fill-rule="evenodd"/></g></svg>

<svg width="179" height="40" viewBox="0 0 179 40" fill="none" xmlns="http://www.w3.org/2000/svg">
<path d="M26.6195 34.8602H31.7169L21.1399 5.2956H15.5328L4.95581 34.8602H10.0107H26.6195ZM25.2236 30.3222H11.5953L18.3363 11.1575L25.2236 30.3222Z" fill="#DDDDDD"/>
<path d="M58.907 34.8602H63.7495V5.33808H58.907V34.8602Z" fill="#DDDDDD"/>
<path d="M67.9833 34.8602H72.8258V21.9469H82.5957V17.9965H72.8258V9.28852H85.3568V5.33808H67.9833V34.8602Z" fill="#DDDDDD"/>
<path d="M116.266 20.0354C116.266 11.2 109.597 4.95578 101.186 4.95578C92.8604 4.95578 86.1065 11.2 86.1065 20.0354C86.1065 28.9133 92.8604 35.1575 101.186 35.1575C109.597 35.1575 116.266 28.9133 116.266 20.0354ZM91.0764 20.0354C91.0764 13.3664 95.3242 9.20357 101.186 9.20357C107.048 9.20357 111.296 13.3664 111.296 20.0354C111.296 26.7044 107.048 30.9522 101.186 30.9522C95.3242 30.9522 91.0764 26.7044 91.0764 20.0354Z" fill="#DDDDDD"/>
<path d="M118.907 5.33808V34.8602H136V30.9522H123.749V5.33808H118.907Z" fill="#DDDDDD"/>
<path d="M135.658 34.8602H140.5V20.0991V5.33808H135.658V34.8602Z" fill="#DDDDDD"/>
<path d="M173.279 20.0354C173.279 11.2 166.61 4.95578 158.199 4.95578C149.874 4.95578 143.12 11.2 143.12 20.0354C143.12 28.9133 149.874 35.1575 158.199 35.1575C166.61 35.1575 173.279 28.9133 173.279 20.0354ZM148.09 20.0354C148.09 13.3664 152.337 9.20357 158.199 9.20357C164.061 9.20357 168.309 13.3664 168.309 20.0354C168.309 26.7044 164.061 30.9522 158.199 30.9522C152.337 30.9522 148.09 26.7044 148.09 20.0354Z" fill="#DDDDDD"/>
<path fill-rule="evenodd" clip-rule="evenodd" d="M44.3866 19.1859C48.1671 19.1859 49.8662 17.1044 49.8662 14.1735C49.8662 11.2 48.1671 9.28852 44.3866 9.28852H39.0343V34.8602H34.1919V5.33808H44.3866C51.3954 5.33808 54.8361 9.37348 54.8361 14.1735C54.8361 17.6567 52.9671 21.3947 47.9972 22.6266L55.3034 34.8602H49.5264L43.79 24.8932V19.1859H44.3866Z" fill="#DDDDDD"/>
</svg>
